X: 10952
T: Drummond Lasses, The
R: reel
M: 4/4
K: Gmajor
|:F|G2 BG ddBG|ddBG FAAB|G2 BG ddBG|cABG EGG:|
|:f|gfed e2 dB|gfed eaaf|g2 fd egdB|cABG EGG:|

